img/contact-phone-call.svg

<svg width="28" height="28" viewBox="0 0 28 28" fill="none" xmlns="http://www.w3.org/2000/svg">
<g filter="url(#filter0_dd)">
<path d="M21.1667 9.54079H23.0834C23.0834 4.62454 19.3717 0.916748 14.4488 0.916748V2.83341C18.3415 2.83341 21.1667 5.65379 21.1667 9.54079Z" fill="#BDBDBD"/>
<path d="M14.4584 6.66672C16.4737 6.66672 17.3334 7.52635 17.3334 9.54172H19.25C19.25 6.4511 17.549 4.75005 14.4584 4.75005V6.66672ZM17.7378 11.8829C17.5536 11.7156 17.3116 11.6263 17.0629 11.634C16.8142 11.6417 16.5782 11.7457 16.4047 11.9241L14.1114 14.2826C13.5594 14.1772 12.4497 13.8312 11.3074 12.6918C10.165 11.5485 9.81907 10.4358 9.71653 9.88768L12.0731 7.59343C12.2517 7.42009 12.3559 7.18405 12.3636 6.93525C12.3713 6.68645 12.2819 6.44443 12.1143 6.26039L8.57323 2.36668C8.40557 2.18206 8.17254 2.07008 7.92363 2.05451C7.67473 2.03894 7.42956 2.12102 7.24019 2.2833L5.16061 4.06676C4.99492 4.23305 4.89603 4.45436 4.88269 4.68872C4.86832 4.9283 4.59423 10.6036 8.9949 15.0061C12.834 18.8443 17.6429 19.1251 18.9673 19.1251C19.1609 19.1251 19.2797 19.1193 19.3114 19.1174C19.5457 19.1043 19.7669 19.0049 19.9324 18.8385L21.7149 16.758C21.8773 16.5687 21.9595 16.3236 21.9441 16.0747C21.9287 15.8258 21.8169 15.5927 21.6324 15.4249L17.7378 11.8829Z" fill="#BDBDBD"/>
<path d="M9.34853 14.6527C9.34849 14.6526 9.34845 14.6526 9.34841 14.6525C9.34845 14.6526 9.34849 14.6526 9.34853 14.6527ZM9.34853 14.6527C13.0478 18.3509 17.6918 18.6251 18.9673 18.6251C19.1517 18.6251 19.2604 18.6196 19.2811 18.6183L19.2834 18.6182C19.3895 18.6122 19.4898 18.5691 19.5669 18.4965M8.57323 2.36668C8.40557 2.18206 8.17254 2.07008 7.92363 2.05451C7.67473 2.03894 7.42956 2.12102 7.24019 2.2833L5.16061 4.06676C4.99492 4.23305 4.89603 4.45436 4.88269 4.68872C4.86832 4.9283 4.59423 10.6036 8.9949 15.0061L8.57323 2.36668Z" stroke="black"/>
<path d="M9.34853 14.6527C9.34849 14.6526 9.34845 14.6526 9.34841 14.6525C9.34845 14.6526 9.34849 14.6526 9.34853 14.6527ZM9.34853 14.6527C13.0478 18.3509 17.6918 18.6251 18.9673 18.6251C19.1517 18.6251 19.2604 18.6196 19.2811 18.6183L19.2834 18.6182C19.3895 18.6122 19.4898 18.5691 19.5669 18.4965M8.57323 2.36668C8.40557 2.18206 8.17254 2.07008 7.92363 2.05451C7.67473 2.03894 7.42956 2.12102 7.24019 2.2833L5.16061 4.06676C4.99492 4.23305 4.89603 4.45436 4.88269 4.68872C4.86832 4.9283 4.59423 10.6036 8.9949 15.0061L8.57323 2.36668Z" stroke="url(#paint0_linear)"/>
</g>
<defs>
<filter id="filter0_dd" x="0.874756" y="0.916748" width="26.2086" height="26.2083" filterUnits="userSpaceOnUse" color-interpolation-filters="sRGB">
<feFlood flood-opacity="0" result="BackgroundImageFix"/>
<feColorMatrix in="SourceAlpha" type="matrix" values="0 0 0 0 0 0 0 0 0 0 0 0 0 0 0 0 0 0 127 0"/>
<feOffset dy="4"/>
<feGaussianBlur stdDeviation="2"/>
<feColorMatrix type="matrix" values="0 0 0 0 0 0 0 0 0 0 0 0 0 0 0 0 0 0 0.25 0"/>
<feBlend mode="normal" in2="BackgroundImageFix" result="effect1_dropShadow"/>
<feColorMatrix in="SourceAlpha" type="matrix" values="0 0 0 0 0 0 0 0 0 0 0 0 0 0 0 0 0 0 127 0"/>
<feOffset dy="4"/>
<feGaussianBlur stdDeviation="2"/>
<feColorMatrix type="matrix" values="0 0 0 0 0 0 0 0 0 0 0 0 0 0 0 0 0 0 0.25 0"/>
<feBlend mode="normal" in2="effect1_dropShadow" result="effect2_dropShadow"/>
<feBlend mode="normal" in="SourceGraphic" in2="effect2_dropShadow" result="shape"/>
</filter>
<linearGradient id="paint0_linear" x1="13.9791" y1="0.916748" x2="13.9791" y2="19.1251" gradientUnits="userSpaceOnUse">
<stop stop-color="white"/>
<stop offset="1" stop-color="white" stop-opacity="0"/>
</linearGradient>
</defs>
</svg>

<svg width="28" height="28" fill="none" xmlns="http://www.w3.org/2000/svg"><g filter="url(#prefix__filter0_dd)"><path d="M21.167 9.54h1.916c0-4.915-3.711-8.623-8.634-8.623v1.916c3.893 0 6.718 2.82 6.718 6.708z" fill="#BDBDBD"/><path d="M14.458 6.667c2.016 0 2.875.86 2.875 2.875h1.917c0-3.09-1.701-4.792-4.792-4.792v1.917zm3.28 5.216a.96.96 0 00-1.333.041l-2.294 2.359c-.552-.106-1.661-.452-2.804-1.591-1.142-1.143-1.488-2.256-1.59-2.804l2.356-2.295a.959.959 0 00.041-1.333l-3.54-3.893a.958.958 0 00-1.334-.084L5.16 4.067a.958.958 0 00-.277.622c-.015.24-.289 5.915 4.112 10.317 3.839 3.838 8.648 4.12 9.972 4.12.194 0 .313-.007.344-.009a.95.95 0 00.621-.279l1.783-2.08a.958.958 0 00-.083-1.333l-3.894-3.542z" fill="#BDBDBD"/><path d="M9.349 14.653s0 0 0 0 0 0 0 0zm0 0c3.699 3.698 8.343 3.972 9.618 3.972.185 0 .293-.005.314-.007h.002a.45.45 0 00.284-.121M8.573 2.367a.958.958 0 00-1.333-.084L5.16 4.067a.958.958 0 00-.277.622c-.015.24-.289 5.915 4.112 10.317l-.422-12.64z" stroke="#000"/><path d="M9.349 14.653s0 0 0 0 0 0 0 0zm0 0c3.699 3.698 8.343 3.972 9.618 3.972.185 0 .293-.005.314-.007h.002a.45.45 0 00.284-.121M8.573 2.367a.958.958 0 00-1.333-.084L5.16 4.067a.958.958 0 00-.277.622c-.015.24-.289 5.915 4.112 10.317l-.422-12.64z" stroke="url(#prefix__paint0_linear)"/></g><defs><linearGradient id="prefix__paint0_linear" x1="13.979" y1=".917" x2="13.979" y2="19.125" gradientUnits="userSpaceOnUse"><stop stop-color="#fff"/><stop offset="1" stop-color="#fff" stop-opacity="0"/></linearGradient><filter id="prefix__filter0_dd" x=".875" y=".917" width="26.209" height="26.208" filterUnits="userSpaceOnUse" color-interpolation-filters="sRGB"><feFlood flood-opacity="0" result="BackgroundImageFix"/><feColorMatrix in="SourceAlpha" values="0 0 0 0 0 0 0 0 0 0 0 0 0 0 0 0 0 0 127 0"/><feOffset dy="4"/><feGaussianBlur stdDeviation="2"/><feColorMatrix values="0 0 0 0 0 0 0 0 0 0 0 0 0 0 0 0 0 0 0.25 0"/><feBlend in2="BackgroundImageFix" result="effect1_dropShadow"/><feColorMatrix in="SourceAlpha" values="0 0 0 0 0 0 0 0 0 0 0 0 0 0 0 0 0 0 127 0"/><feOffset dy="4"/><feGaussianBlur stdDeviation="2"/><feColorMatrix values="0 0 0 0 0 0 0 0 0 0 0 0 0 0 0 0 0 0 0.25 0"/><feBlend in2="effect1_dropShadow" result="effect2_dropShadow"/><feBlend in="SourceGraphic" in2="effect2_dropShadow" result="shape"/></filter></defs></svg>
